X:90
T: Die dienende Schwester
N: Q0075s
O: Mitteleuropa, Deutschland (BRD) , Westfalen
N: Einschiebsel am Anfang der dritten Zeile.
R: Ballade, Adelige als Dienstmagd, Tod; Kinder - Spiel, Tanz
M: 3/4
L: 1/8
K: F
c2 | c4f2 | A4A2 | A4c2 | F4
c2 | c4c2 | c4d2 | B4c2 | A2z2
cf | f2zAAc | c4A2 | G4F2 | F4

